packages/icons/svgs/solid/Source=alarm-disabled.svg

<svg width="12" height="12" viewBox="0 0 12 12" fill="none" xmlns="http://www.w3.org/2000/svg">
<g clip-path="url(#clip0_1207_669)">
<path d="M7.50003 10.5H4.50002C4.50002 10.8978 4.65806 11.2793 4.93936 11.5606C5.22067 11.842 5.6022 12 6.00003 12C6.39785 12 6.77938 11.842 7.06069 11.5606C7.342 11.2793 7.50003 10.8978 7.50003 10.5Z" fill="black"/>
<path d="M0.750003 9.74998H2.25001L9.52054 2.47945C9.26636 1.75014 8.7901 1.11878 8.15866 0.674058C7.52722 0.229333 6.77233 -0.00641146 6.00003 -6.04404e-05C5.5062 -0.00497249 5.01636 0.0886703 4.55917 0.275387C4.10197 0.462103 3.68662 0.738142 3.33742 1.08735C2.98821 1.43655 2.71217 1.8519 2.52546 2.3091C2.33874 2.76629 2.2451 3.25613 2.25001 3.74996V5.99997C2.22069 6.43079 2.10615 6.8515 1.91303 7.23773C1.71992 7.62396 1.45207 7.96802 1.125 8.24998H0.750003C0.55109 8.24998 0.360324 8.32899 0.219671 8.46965C0.079018 8.6103 0 8.80107 0 8.99998C0 9.19889 0.079018 9.38966 0.219671 9.53031C0.360324 9.67096 0.55109 9.74998 0.750003 9.74998Z" fill="black"/>
<path d="M11.25 8.24998H10.875C10.5479 7.96803 10.2801 7.62396 10.087 7.23774C9.89386 6.85151 9.77933 6.43079 9.75 5.99997V5.43147L5.43148 9.74998H11.25C11.4489 9.74998 11.6397 9.67097 11.7803 9.53031C11.921 9.38966 12 9.1989 12 8.99998C12 8.80107 11.921 8.6103 11.7803 8.46965C11.6397 8.329 11.4489 8.24998 11.25 8.24998Z" fill="black"/>
<path d="M0.750027 12C0.601713 12 0.456739 11.956 0.333431 11.8736C0.210123 11.7911 0.114018 11.674 0.0572651 11.537C0.000512287 11.4 -0.01434 11.2492 0.0145858 11.1037C0.0435116 10.9583 0.114917 10.8246 0.219774 10.7197L10.7198 0.219698C10.8613 0.0830786 11.0507 0.00748247 11.2474 0.0091913C11.444 0.0109001 11.6321 0.0897772 11.7712 0.228834C11.9102 0.367891 11.9891 0.556001 11.9908 0.752649C11.9925 0.949298 11.9169 1.13875 11.7803 1.2802L1.28028 11.7802C1.13966 11.9209 0.948924 12 0.750027 12Z" fill="black"/>
</g>
<defs>
<clipPath id="clip0_1207_669">
<rect width="12" height="12" fill="white"/>
</clipPath>
</defs>
</svg>

<svg xmlns="http://www.w3.org/2000/svg" width="12" height="12" viewBox="0 0 12 12"><g clip-path="url(#a)"><path d="M7.5 10.5h-3a1.5 1.5 0 0 0 3 0ZM.75 9.75h1.5l7.27-7.27A3.696 3.696 0 0 0 6 0a3.713 3.713 0 0 0-3.75 3.75V6a3.263 3.263 0 0 1-1.125 2.25H.75a.75.75 0 1 0 0 1.5Zm10.5-1.5h-.375A3.262 3.262 0 0 1 9.75 6v-.569L5.431 9.75h5.819a.75.75 0 1 0 0-1.5Z"/><path d="M.75 12a.75.75 0 0 1-.53-1.28L10.72.22a.75.75 0 0 1 1.06 1.06l-10.5 10.5a.75.75 0 0 1-.53.22Z"/></g><defs><clipPath id="a"><path fill="#fff" d="M0 0h12v12H0z"/></clipPath></defs></svg>
